X:1
T:Tickle Cove Pond
M:3/4
L:1/4
K:Bb
 f| d B B| B c B| A3/2 F/2 E| F2 B| A F F| E D E| F F F| e2 f| d B B|\
 B c B| A/2 F3/2 F| F2 B| A F F| E D E| F B B| B2 z/2 B/2| B d3/2 f/2|\
 f d B| B d f| f2 d| e e e| e f e| d c d| e2 f| d/2 B3/2 B| B c B|\
 A2 F/2F/2| F2 B| A F F| E D E| F B B| B2 z| f2- e| d B B| B c B| A F F|\
 F2 B| A F F| E D E| F F F| e2 z| f2- e| d B B| B/2 c3/2 B| A F F|\
 F2 B| A F F| E D E| F B B| B2||

